Newaita-dark/apps/64/cs-panel.svg

<?xml version="1.0" encoding="UTF-8"?>
<svg xmlns="http://www.w3.org/2000/svg" xmlns:xlink="http://www.w3.org/1999/xlink" width="64pt" height="64pt" viewBox="0 0 64 64" version="1.1">
<defs>
<linearGradient id="linear0" gradientUnits="userSpaceOnUse" x1="254" y1="233.5" x2="254" y2="254.666672" gradientTransform="matrix(0.125012,0,0,0.125012,-0.00000763012,26.877566)">
<stop offset="0" style="stop-color:rgb(0%,0%,0%);stop-opacity:0.27451;"/>
<stop offset="1" style="stop-color:rgb(0%,0%,0%);stop-opacity:0;"/>
</linearGradient>
<radialGradient id="radial0" gradientUnits="userSpaceOnUse" cx="450.908936" cy="189.579361" fx="450.908936" fy="189.579361" r="21.166656" gradientTransform="matrix(0.000000348341,-0.156265,-0.281277,-0.000000203077,106.907382,127.190661)">
<stop offset="0" style="stop-color:rgb(0%,0%,0%);stop-opacity:0.313725;"/>
<stop offset="0.222222" style="stop-color:rgb(0%,0%,0%);stop-opacity:0.27451;"/>
<stop offset="1" style="stop-color:rgb(0%,0%,0%);stop-opacity:0;"/>
</radialGradient>
<radialGradient id="radial1" gradientUnits="userSpaceOnUse" cx="450.908936" cy="189.579361" fx="450.908936" fy="189.579361" r="21.166656" gradientTransform="matrix(-0.000000348341,0.156265,0.281277,0.000000203077,-43.401323,-15.054962)">
<stop offset="0" style="stop-color:rgb(0%,0%,0%);stop-opacity:0.313725;"/>
<stop offset="0.222222" style="stop-color:rgb(0%,0%,0%);stop-opacity:0.27451;"/>
<stop offset="1" style="stop-color:rgb(0%,0%,0%);stop-opacity:0;"/>
</radialGradient>
<radialGradient id="radial2" gradientUnits="userSpaceOnUse" cx="450.908936" cy="189.579361" fx="450.908936" fy="189.579361" r="21.166656" gradientTransform="matrix(-0.000000348341,-0.156265,0.281277,-0.000000203077,-43.401323,127.190661)">
<stop offset="0" style="stop-color:rgb(0%,0%,0%);stop-opacity:0.313725;"/>
<stop offset="0.222222" style="stop-color:rgb(0%,0%,0%);stop-opacity:0.27451;"/>
<stop offset="1" style="stop-color:rgb(0%,0%,0%);stop-opacity:0;"/>
</radialGradient>
<radialGradient id="radial3" gradientUnits="userSpaceOnUse" cx="450.908936" cy="189.579361" fx="450.908936" fy="189.579361" r="21.166656" gradientTransform="matrix(0.000000348341,0.156265,-0.281277,0.000000203077,106.907378,-15.054963)">
<stop offset="0" style="stop-color:rgb(0%,0%,0%);stop-opacity:0.313725;"/>
<stop offset="0.222222" style="stop-color:rgb(0%,0%,0%);stop-opacity:0.27451;"/>
<stop offset="1" style="stop-color:rgb(0%,0%,0%);stop-opacity:0;"/>
</radialGradient>
<linearGradient id="linear1" gradientUnits="userSpaceOnUse" x1="306.916656" y1="-25.791676" x2="305.954559" y2="-135.329163" gradientTransform="matrix(0.150699,0,0,0.434824,-11.708026,67.282696)">
<stop offset="0" style="stop-color:rgb(25.882353%,25.882353%,25.882353%);stop-opacity:1;"/>
<stop offset="1" style="stop-color:rgb(38.039216%,38.039216%,38.039216%);stop-opacity:1;"/>
</linearGradient>
<linearGradient id="linear2" gradientUnits="userSpaceOnUse" x1="306.916656" y1="-25.791676" x2="305.954559" y2="-135.329163" gradientTransform="matrix(0.150699,0,0,0.434824,-11.708026,67.282696)">
<stop offset="0" style="stop-color:rgb(69.019608%,74.509804%,77.254902%);stop-opacity:1;"/>
<stop offset="1" style="stop-color:rgb(81.176471%,84.705882%,86.27451%);stop-opacity:1;"/>
</linearGradient>
<linearGradient id="linear3" gradientUnits="userSpaceOnUse" x1="444.499969" y1="145.12915" x2="444.499969" y2="189.579178" gradientTransform="matrix(1.25,0,0,1.428571,-465.66687,-47.910336)">
<stop offset="0" style="stop-color:rgb(47.058824%,56.470588%,61.176471%);stop-opacity:1;"/>
<stop offset="1" style="stop-color:rgb(37.647059%,49.019608%,54.509804%);stop-opacity:1;"/>
</linearGradient>
</defs>
<g id="surface1">
<path style=" stroke:none;fill-rule:nonzero;fill:url(#linear0);" d="M 9.261719 56.066406 L 54.246094 56.066406 L 54.246094 58.714844 L 9.261719 58.714844 Z M 9.261719 56.066406 "/>
<path style=" stroke:none;fill-rule:nonzero;fill:url(#radial0);" d="M 54.246094 56.066406 L 59.535156 56.066406 L 59.535156 53.421875 L 54.246094 53.421875 Z M 54.246094 56.066406 "/>
<path style=" stroke:none;fill-rule:nonzero;fill:url(#radial1);" d="M 9.261719 56.066406 L 3.96875 56.066406 L 3.96875 58.714844 L 9.261719 58.714844 Z M 9.261719 56.066406 "/>
<path style=" stroke:none;fill-rule:nonzero;fill:url(#radial2);" d="M 9.261719 56.066406 L 3.96875 56.066406 L 3.96875 53.421875 L 9.261719 53.421875 Z M 9.261719 56.066406 "/>
<path style=" stroke:none;fill-rule:nonzero;fill:url(#radial3);" d="M 54.246094 56.066406 L 59.535156 56.066406 L 59.535156 58.714844 L 54.246094 58.714844 Z M 54.246094 56.066406 "/>
<path style=" stroke:none;fill-rule:nonzero;fill:url(#linear1);" d="M 6.613281 8.4375 L 56.890625 8.4375 C 58.351562 8.4375 59.535156 9.621094 59.535156 11.085938 L 59.535156 53.421875 C 59.535156 54.882812 58.351562 56.066406 56.890625 56.066406 L 6.613281 56.066406 C 5.152344 56.066406 3.96875 54.882812 3.96875 53.421875 L 3.96875 11.085938 C 3.96875 9.621094 5.152344 8.4375 6.613281 8.4375 Z M 6.613281 8.4375 "/>
<path style=" stroke:none;fill-rule:nonzero;fill:url(#linear2);" d="M 6.613281 56.066406 C 5.148438 56.066406 3.96875 54.886719 3.96875 53.421875 L 3.96875 45.484375 L 59.535156 45.484375 L 59.535156 53.421875 C 59.535156 54.886719 58.355469 56.066406 56.890625 56.066406 Z M 6.613281 56.066406 "/>
<path style=" stroke:none;fill-rule:nonzero;fill:rgb(100%,100%,100%);fill-opacity:0.392157;" d="M 3.96875 45.488281 L 3.96875 46.144531 L 59.535156 46.144531 L 59.535156 45.488281 Z M 3.96875 45.488281 "/>
<path style=" stroke:none;fill-rule:nonzero;fill:rgb(0%,0%,0%);fill-opacity:0.235294;" d="M 6.613281 56.09375 C 5.148438 56.09375 3.96875 54.914062 3.96875 53.449219 L 3.96875 52.761719 C 3.96875 54.226562 5.148438 55.40625 6.613281 55.40625 L 56.890625 55.40625 C 58.355469 55.40625 59.535156 54.226562 59.535156 52.761719 L 59.535156 53.449219 C 59.535156 54.914062 58.355469 56.09375 56.890625 56.09375 Z M 6.613281 56.09375 "/>
<path style=" stroke:none;fill-rule:nonzero;fill:rgb(100%,100%,100%);fill-opacity:0.392157;" d="M 6.613281 8.589844 C 5.148438 8.589844 3.96875 9.769531 3.96875 11.238281 L 3.96875 11.925781 C 3.96875 10.457031 5.148438 9.277344 6.613281 9.277344 L 56.890625 9.277344 C 58.355469 9.277344 59.535156 10.457031 59.535156 11.925781 L 59.535156 11.238281 C 59.535156 9.769531 58.355469 8.589844 56.890625 8.589844 Z M 6.613281 8.589844 "/>
<path style=" stroke:none;fill-rule:nonzero;fill:rgb(12.941177%,12.941177%,12.941177%);fill-opacity:1;" d="M 6.613281 8.25 C 5.046875 8.25 3.78125 9.519531 3.78125 11.085938 L 3.78125 53.421875 C 3.78125 54.988281 5.046875 56.253906 6.613281 56.253906 L 56.890625 56.253906 C 58.457031 56.253906 59.722656 54.988281 59.722656 53.421875 L 59.722656 11.085938 C 59.722656 9.519531 58.457031 8.25 56.890625 8.25 Z M 6.613281 8.625 L 56.890625 8.625 C 58.257812 8.625 59.347656 9.71875 59.347656 11.085938 L 59.347656 53.421875 C 59.347656 54.789062 58.257812 55.878906 56.890625 55.878906 L 6.613281 55.878906 C 5.25 55.878906 4.15625 54.789062 4.15625 53.421875 L 4.15625 11.085938 C 4.15625 9.71875 5.25 8.625 6.613281 8.625 Z M 6.613281 8.625 "/>
<path style="fill:none;stroke-width:3;stroke-linecap:round;stroke-linejoin:miter;stroke:rgb(12.941177%,12.941177%,12.941177%);stroke-opacity:1;stroke-miterlimit:4;" d="M 52.901198 233.488421 C 41.183567 233.488421 31.746968 224.051823 31.746968 212.334192 L 31.746968 148.840255 L 476.235772 148.840255 L 476.235772 212.334192 C 476.235772 224.051823 466.799173 233.488421 455.081542 233.488421 Z M 52.901198 233.488421 " transform="matrix(0.125012,0,0,0.125012,0,26.877566)"/>
<path style="fill-rule:nonzero;fill:url(#linear3);stroke-width:3;stroke-linecap:round;stroke-linejoin:miter;stroke:rgb(12.941177%,12.941177%,12.941177%);stroke-opacity:1;stroke-miterlimit:4;" d="M 89.960159 164.713739 C 104.583763 164.713739 116.426382 176.556358 116.426382 191.179962 C 116.426382 205.772318 104.583763 217.614937 89.960159 217.614937 C 75.336556 217.614937 63.493937 205.772318 63.493937 191.179962 C 63.493937 176.556358 75.336556 164.713739 89.960159 164.713739 Z M 89.960159 164.713739 " transform="matrix(0.125012,0,0,0.125012,0,26.877566)"/>
<path style=" stroke:none;fill-rule:nonzero;fill:rgb(27.058825%,35.294119%,39.215687%);fill-opacity:1;" d="M 44.652344 47.46875 C 44.652344 47.46875 44.652344 47.46875 44.648438 47.46875 L 43.328125 47.46875 C 42.964844 47.46875 42.667969 47.761719 42.667969 48.128906 C 42.667969 48.496094 42.964844 48.792969 43.328125 48.792969 L 43.992188 48.792969 L 43.992188 53.421875 C 43.992188 53.789062 44.285156 54.082031 44.652344 54.082031 L 45.3125 54.082031 C 45.679688 54.082031 45.976562 53.789062 45.976562 53.421875 L 45.976562 48.128906 C 45.976562 47.773438 45.699219 47.488281 45.347656 47.46875 C 45.335938 47.46875 45.324219 47.46875 45.3125 47.46875 Z M 44.652344 47.46875 "/>
<path style=" stroke:none;fill-rule:nonzero;fill:rgb(27.058825%,35.294119%,39.215687%);fill-opacity:0.945098;" d="M 47.296875 48.792969 C 47.664062 48.792969 47.960938 49.085938 47.960938 49.453125 C 47.960938 49.816406 47.664062 50.113281 47.296875 50.113281 C 46.933594 50.113281 46.636719 49.816406 46.636719 49.453125 C 46.636719 49.085938 46.933594 48.792969 47.296875 48.792969 Z M 47.296875 48.792969 "/>
<path style=" stroke:none;fill-rule:nonzero;fill:rgb(27.058825%,35.294119%,39.215687%);fill-opacity:1;" d="M 49.285156 47.46875 C 48.917969 47.46875 48.621094 47.761719 48.621094 48.128906 L 48.621094 53.421875 C 48.621094 53.789062 48.917969 54.082031 49.285156 54.082031 L 51.929688 54.082031 C 52.296875 54.082031 52.589844 53.789062 52.589844 53.421875 L 52.589844 48.128906 C 52.589844 47.761719 52.296875 47.46875 51.929688 47.46875 Z M 50.277344 48.792969 L 50.9375 48.792969 C 51.121094 48.792969 51.269531 48.9375 51.269531 49.121094 L 51.269531 52.429688 C 51.269531 52.613281 51.121094 52.761719 50.9375 52.761719 L 50.277344 52.761719 C 50.09375 52.761719 49.945312 52.613281 49.945312 52.429688 L 49.945312 49.121094 C 49.945312 48.9375 50.09375 48.792969 50.277344 48.792969 Z M 50.277344 48.792969 "/>
<path style=" stroke:none;fill-rule:nonzero;fill:rgb(27.058825%,35.294119%,39.215687%);fill-opacity:1;" d="M 53.914062 47.46875 C 53.546875 47.46875 53.253906 47.761719 53.253906 48.128906 L 53.253906 53.421875 C 53.253906 53.789062 53.546875 54.082031 53.914062 54.082031 L 56.558594 54.082031 C 56.925781 54.082031 57.222656 53.789062 57.222656 53.421875 L 57.222656 48.128906 C 57.222656 47.761719 56.925781 47.46875 56.558594 47.46875 Z M 54.90625 48.792969 L 55.566406 48.792969 C 55.75 48.792969 55.898438 48.9375 55.898438 49.121094 L 55.898438 52.429688 C 55.898438 52.613281 55.75 52.761719 55.566406 52.761719 L 54.90625 52.761719 C 54.722656 52.761719 54.574219 52.613281 54.574219 52.429688 L 54.574219 49.121094 C 54.574219 48.9375 54.722656 48.792969 54.90625 48.792969 Z M 54.90625 48.792969 "/>
<path style=" stroke:none;fill-rule:nonzero;fill:rgb(27.058825%,35.294119%,39.215687%);fill-opacity:1;" d="M 38.699219 47.46875 C 38.332031 47.46875 38.039062 47.761719 38.039062 48.128906 L 38.039062 53.421875 C 38.039062 53.789062 38.332031 54.082031 38.699219 54.082031 L 41.34375 54.082031 C 41.710938 54.082031 42.007812 53.789062 42.007812 53.421875 L 42.007812 48.128906 C 42.007812 47.761719 41.710938 47.46875 41.34375 47.46875 Z M 39.691406 48.792969 L 40.351562 48.792969 C 40.535156 48.792969 40.683594 48.9375 40.683594 49.121094 L 40.683594 52.429688 C 40.683594 52.613281 40.535156 52.761719 40.351562 52.761719 L 39.691406 52.761719 C 39.507812 52.761719 39.359375 52.613281 39.359375 52.429688 L 39.359375 49.121094 C 39.359375 48.9375 39.507812 48.792969 39.691406 48.792969 Z M 39.691406 48.792969 "/>
<path style=" stroke:none;fill-rule:nonzero;fill:rgb(27.058825%,35.294119%,39.215687%);fill-opacity:0.945098;" d="M 47.296875 51.4375 C 47.664062 51.4375 47.960938 51.734375 47.960938 52.097656 C 47.960938 52.464844 47.664062 52.761719 47.296875 52.761719 C 46.933594 52.761719 46.636719 52.464844 46.636719 52.097656 C 46.636719 51.734375 46.933594 51.4375 47.296875 51.4375 Z M 47.296875 51.4375 "/>
</g>
</svg>

<svg xmlns="http://www.w3.org/2000/svg" width="64pt" height="64pt" viewBox="0 0 64 64"><defs><linearGradient id="a" gradientUnits="userSpaceOnUse" x1="254" y1="233.5" x2="254" y2="254.667" gradientTransform="translate(0 26.878) scale(.12501)"><stop offset="0" stop-opacity=".275"/><stop offset="1" stop-opacity="0"/></linearGradient><radialGradient id="b" gradientUnits="userSpaceOnUse" cx="450.909" cy="189.579" fx="450.909" fy="189.579" r="21.167" gradientTransform="matrix(0 -.15626 -.28128 0 106.907 127.19)"><stop offset="0" stop-opacity=".314"/><stop offset=".222" stop-opacity=".275"/><stop offset="1" stop-opacity="0"/></radialGradient><radialGradient id="c" gradientUnits="userSpaceOnUse" cx="450.909" cy="189.579" fx="450.909" fy="189.579" r="21.167" gradientTransform="matrix(0 .15626 .28128 0 -43.401 -15.055)"><stop offset="0" stop-opacity=".314"/><stop offset=".222" stop-opacity=".275"/><stop offset="1" stop-opacity="0"/></radialGradient><radialGradient id="d" gradientUnits="userSpaceOnUse" cx="450.909" cy="189.579" fx="450.909" fy="189.579" r="21.167" gradientTransform="matrix(0 -.15626 .28128 0 -43.401 127.19)"><stop offset="0" stop-opacity=".314"/><stop offset=".222" stop-opacity=".275"/><stop offset="1" stop-opacity="0"/></radialGradient><radialGradient id="e" gradientUnits="userSpaceOnUse" cx="450.909" cy="189.579" fx="450.909" fy="189.579" r="21.167" gradientTransform="matrix(0 .15626 -.28128 0 106.907 -15.055)"><stop offset="0" stop-opacity=".314"/><stop offset=".222" stop-opacity=".275"/><stop offset="1" stop-opacity="0"/></radialGradient><linearGradient id="f" gradientUnits="userSpaceOnUse" x1="306.917" y1="-25.792" x2="305.955" y2="-135.329" gradientTransform="matrix(.1507 0 0 .43482 -11.708 67.283)"><stop offset="0" stop-color="#424242"/><stop offset="1" stop-color="#616161"/></linearGradient><linearGradient id="g" gradientUnits="userSpaceOnUse" x1="306.917" y1="-25.792" x2="305.955" y2="-135.329" gradientTransform="matrix(.1507 0 0 .43482 -11.708 67.283)"><stop offset="0" stop-color="#b0bec5"/><stop offset="1" stop-color="#cfd8dc"/></linearGradient><linearGradient id="h" gradientUnits="userSpaceOnUse" x1="444.5" y1="145.129" x2="444.5" y2="189.579" gradientTransform="matrix(1.25 0 0 1.42857 -465.667 -47.91)"><stop offset="0" stop-color="#78909c"/><stop offset="1" stop-color="#607d8b"/></linearGradient></defs><path d="M9.262 56.066h44.984v2.649H9.262zm0 0" fill="url(#a)"/><path d="M54.246 56.066h5.29v-2.644h-5.29zm0 0" fill="url(#b)"/><path d="M9.262 56.066H3.969v2.649h5.293zm0 0" fill="url(#c)"/><path d="M9.262 56.066H3.969v-2.644h5.293zm0 0" fill="url(#d)"/><path d="M54.246 56.066h5.29v2.649h-5.29zm0 0" fill="url(#e)"/><path d="M6.613 8.438h50.278a2.645 2.645 0 0 1 2.644 2.648v42.336a2.644 2.644 0 0 1-2.644 2.644H6.613a2.644 2.644 0 0 1-2.644-2.644V11.086a2.645 2.645 0 0 1 2.644-2.649zm0 0" fill="url(#f)"/><path d="M6.613 56.066a2.639 2.639 0 0 1-2.644-2.644v-7.938h55.566v7.938a2.639 2.639 0 0 1-2.644 2.644zm0 0" fill="url(#g)"/><path d="M3.969 45.488v.657h55.566v-.657zm0 0" fill="#fff" fill-opacity=".392"/><path d="M6.613 56.094a2.639 2.639 0 0 1-2.644-2.645v-.687a2.639 2.639 0 0 0 2.644 2.644h50.278a2.639 2.639 0 0 0 2.644-2.644v.687a2.639 2.639 0 0 1-2.644 2.645zm0 0" fill-opacity=".235"/><path d="M6.613 8.59a2.64 2.64 0 0 0-2.644 2.648v.688a2.64 2.64 0 0 1 2.644-2.649h50.278a2.64 2.64 0 0 1 2.644 2.649v-.688a2.64 2.64 0 0 0-2.644-2.648zm0 0" fill="#fff" fill-opacity=".392"/><path d="M6.613 8.25a2.832 2.832 0 0 0-2.832 2.836v42.336a2.83 2.83 0 0 0 2.832 2.832h50.278a2.83 2.83 0 0 0 2.832-2.832V11.086A2.832 2.832 0 0 0 56.89 8.25zm0 .375h50.278a2.447 2.447 0 0 1 2.457 2.46v42.337a2.444 2.444 0 0 1-2.457 2.457H6.613a2.447 2.447 0 0 1-2.457-2.457V11.086a2.45 2.45 0 0 1 2.457-2.461zm0 0" fill="#212121"/><path d="M6.613 56.066a2.639 2.639 0 0 1-2.644-2.644v-7.938h55.566v7.938a2.639 2.639 0 0 1-2.644 2.644zm0 0" fill="none" stroke-width=".37503000000000003" stroke-linecap="round" stroke="#212121"/><path d="M89.96 164.714c14.624 0 26.466 11.842 26.466 26.466 0 14.592-11.842 26.435-26.466 26.435-14.623 0-26.466-11.843-26.466-26.435 0-14.624 11.843-26.466 26.466-26.466zm0 0" transform="translate(0 26.878) scale(.12501)" fill="url(#h)" stroke-width="3" stroke-linecap="round" stroke="#212121"/><path d="M44.652 47.469h-1.324a.663.663 0 0 0 0 1.324h.664v4.629c0 .367.293.66.66.66h.66a.66.66 0 0 0 .665-.66v-5.293a.661.661 0 0 0-.63-.66h-.035zm0 0" fill="#455a64"/><path d="M47.297 48.793a.66.66 0 1 1 0 1.32.66.66 0 1 1 0-1.32zm0 0" fill="#455a64" fill-opacity=".945"/><path d="M49.285 47.469a.66.66 0 0 0-.664.66v5.293c0 .367.297.66.664.66h2.645c.367 0 .66-.293.66-.66v-5.293a.657.657 0 0 0-.66-.66zm.992 1.324h.66c.184 0 .333.145.333.328v3.309a.332.332 0 0 1-.333.332h-.66a.332.332 0 0 1-.332-.332V49.12c0-.184.149-.328.332-.328zm0 0M53.914 47.469a.657.657 0 0 0-.66.66v5.293c0 .367.293.66.66.66h2.645a.66.66 0 0 0 .664-.66v-5.293a.66.66 0 0 0-.664-.66zm.992 1.324h.66c.184 0 .332.145.332.328v3.309a.332.332 0 0 1-.332.332h-.66a.332.332 0 0 1-.332-.332V49.12c0-.184.149-.328.332-.328zm0 0M38.7 47.469a.657.657 0 0 0-.66.66v5.293c0 .367.292.66.66.66h2.644a.66.66 0 0 0 .664-.66v-5.293a.66.66 0 0 0-.664-.66zm.991 1.324h.66c.184 0 .333.145.333.328v3.309a.332.332 0 0 1-.332.332h-.66a.332.332 0 0 1-.333-.332V49.12c0-.184.149-.328.332-.328zm0 0" fill="#455a64"/><path d="M47.297 51.438a.663.663 0 1 1 .003 1.325.663.663 0 0 1-.003-1.325zm0 0" fill="#455a64" fill-opacity=".945"/></svg>
